; generated by PrusaSlicer 2.4.0+win64 on 2022-02-07 at 16:42:36 UTC

; 

; external perimeters extrusion width = 0.45mm
; perimeters extrusion width = 0.45mm
; infill extrusion width = 0.45mm
; solid infill extrusion width = 0.45mm
; top infill extrusion width = 0.40mm
; first layer extrusion width = 0.42mm

M73 P0 R374
M73 Q0 S377
M201 X1000 Y1000 Z200 E5000 ; sets maximum accelerations, mm/sec^2
M203 X200 Y200 Z12 E120 ; sets maximum feedrates, mm/sec
M204 P1250 R1250 T1250 ; sets acceleration (P, T) and retract acceleration (R), mm/sec^2
M205 X8.00 Y8.00 Z0.40 E4.50 ; sets the jerk limits, mm/sec
M205 S0 T0 ; sets the minimum extruding and travel feed rate, mm/sec
M107
;TYPE:Custom
M862.3 P "MK3S" ; printer model check
M862.1 P0.4 ; nozzle diameter check
M115 U3.10.0 ; tell printer latest fw version
G90 ; use absolute coordinates
M83 ; extruder relative mode
M104 S215 ; set extruder temp
M140 S60 ; set bed temp
M190 S60 ; wait for bed temp
M109 S215 ; wait for extruder temp
G28 W ; home all without mesh bed level
G80 ; mesh bed leveling
G1 Z0.2 F720
G1 Y-3 F1000 ; go outside print area
G92 E0
G1 X60 E9 F1000 ; intro line
G1 X100 E12.5 F1000 ; intro line
G92 E0
M221 S95

; Don't change E values below. Excessive value can damage the printer.
M907 E430 ; set extruder motor current
G21 ; set units to millimeters
G90 ; use absolute coordinates
M83 ; use relative distances for extrusion
M900 K0.05 ; Filament gcode LA 1.5
M900 K30 ; Filament gcode LA 1.0
M107
;LAYER_CHANGE
;Z:0.2
;HEIGHT:0.2
;BEFORE_LAYER_CHANGE
G92 E0.0
;0.2


M73 P0 R373
G1 E-.8 F2100
G1 Z.4 F720
;AFTER_LAYER_CHANGE
;0.2
G1 X50.941 Y62.814 F10800
G1 Z.2 F720
G1 E.8 F2100
M204 S800
;TYPE:Skirt/Brim
;WIDTH:0.42
G1 F1200
G1 X51.875 Y62.623 E.02988
G1 X198.375 Y62.623 E4.5934
G1 X199.682 Y63.015 E.04278
G1 X200.558 Y64.06 E.04278
G1 X200.752 Y65 E.03008
G1 X200.752 Y166 E3.16678
G1 X200.36 Y167.307 E.04278
M73 Q0 S376
G1 X199.315 Y168.183 E.04278
G1 X198.375 Y168.377 E.03008
G1 X51.625 Y168.377 E4.60124
G1 X50.318 Y167.985 E.04278
G1 X49.442 Y166.94 E.04278
G1 X49.248 Y166 E.03008
G1 X49.248 Y156 E.31354
G1 X49.498 Y64.993 E2.85346
G1 X49.893 Y63.688 E.04278
G1 X50.895 Y62.852 E.0409
M204 S1000
; printing object Coffret Cde Prises Chacon 54650RX.stl id:0 copy 0
;WIPE_START
G1 F8640
G1 X51.875 Y62.623 E-.23237
G1 X54.16 Y62.623 E-.52763
;WIPE_END
G1 E-.04 F2100
G1 Z.6 F720
G1 X191.269 Y69.757 F10800
G1 Z.2 F720
G1 E.8 F2100
M204 S800
;TYPE:Perimeter
G1 F1200
G1 X191.275 Y69.656 E.00318
G1 X191.393 Y69.229 E.01388
G1 X191.503 Y68.99 E.00825
G1 X191.744 Y68.636 E.01343
G1 X191.925 Y68.445 E.00824
G1 X192.278 Y68.177 E.0139
G1 X192.696 Y67.985 E.01443
G1 X193.145 Y67.886 E.01441
G1 X193.605 Y67.886 E.01444
G1 X194.054 Y67.985 E.01442
G1 X194.472 Y68.177 E.01443
G1 X194.825 Y68.445 E.0139
G1 X195.006 Y68.636 E.00824
G1 X195.256 Y69.004 E.01394
G1 X195.426 Y69.431 E.01444
G1 X195.501 Y69.885 E.01441
G1 X195.475 Y70.344 E.01442
G1 X195.357 Y70.771 E.01388
G1 X195.247 Y71.01 E.00825
G1 X195.006 Y71.364 E.01343
G1 X194.825 Y71.555 E.00824
G1 X194.472 Y71.823 E.0139
G1 X194.054 Y72.015 E.01443
G1 X193.605 Y72.114 E.01442
G1 X193.145 Y72.114 E.01444
G1 X192.696 Y72.015 E.01442
G1 X192.278 Y71.823 E.01443
G1 X191.925 Y71.555 E.0139
G1 X191.744 Y71.364 E.00824
G1 X191.494 Y70.996 E.01393
G1 X191.324 Y70.569 E.01444
G1 X191.249 Y70.115 E.01441
G1 X191.266 Y69.817 E.00936
M204 S1000
G1 X191.628 Y70.094 F10800
M204 S800
;TYPE:External perimeter
G1 F1200
G1 X191.649 Y69.717 E.01185
G1 X191.748 Y69.359 E.01164
G1 X191.833 Y69.176 E.00632
G1 X192.038 Y68.873 E.01149
G1 X192.177 Y68.727 E.00631
G1 X192.473 Y68.502 E.01166
G1 X192.816 Y68.344 E.01185
G1 X193.186 Y68.263 E.01185
G1 X193.564 Y68.263 E.01187
G1 X193.934 Y68.344 E.01186
G1 X194.277 Y68.502 E.01185
G1 X194.573 Y68.727 E.01166
G1 X194.712 Y68.873 E.00631
G1 X194.921 Y69.181 E.01167
G1 X195.061 Y69.533 E.01187
G1 X195.122 Y69.906 E.01184
G1 X195.101 Y70.283 E.01185
G1 X195.002 Y70.641 E.01164
G1 X194.917 Y70.824 E.00632
G1 X194.712 Y71.127 E.01149
G1 X194.573 Y71.273 E.00631
G1 X194.277 Y71.498 E.01166
G1 X193.934 Y71.656 E.01185
G1 X193.564 Y71.737 E.01186
G1 X193.186 Y71.737 E.01187
G1 X192.816 Y71.656 E.01186
G1 X192.473 Y71.498 E.01185
G1 X192.177 Y71.273 E.01166
G1 X192.038 Y71.127 E.00632
G1 X191.829 Y70.819 E.01167
G1 X191.689 Y70.467 E.01187
G1 X191.638 Y70.154 E.00996
M204 S1000
G1 X191.291 Y69.923 F10800
;WIPE_START
G1 F8640
G1 X191.649 Y69.717 E-.10083
G1 X191.748 Y69.359 E-.08571
G1 X191.833 Y69.176 E-.04657
G1 X192.038 Y68.873 E-.08461
G1 X192.177 Y68.727 E-.0465
G1 X192.473 Y68.502 E-.08585
G1 X192.816 Y68.344 E-.08728
G1 X193.186 Y68.263 E-.0873
G1 X193.564 Y68.263 E-.08741
G1 X193.767 Y68.307 E-.04794
;WIPE_END
G1 E-.04 F2100
G1 Z.6 F720
G1 X193.586 Y158.886 F10800
G1 Z.2 F720
G1 E.8 F2100
M204 S800
;TYPE:Perimeter
G1 F1200
G1 X194.054 Y158.985 E.01501
G1 X194.472 Y159.177 E.01443
G1 X194.825 Y159.445 E.0139
G1 X195.006 Y159.636 E.00824
G1 X195.256 Y160.004 E.01394
G1 X195.426 Y160.431 E.01444
G1 X195.501 Y160.885 E.01441
G1 X195.475 Y161.344 E.01442
G1 X195.357 Y161.771 E.01388
G1 X195.247 Y162.01 E.00826
G1 X195.006 Y162.364 E.01343
G1 X194.825 Y162.555 E.00824
G1 X194.472 Y162.823 E.0139
G1 X194.054 Y163.015 E.01443
G1 X193.605 Y163.114 E.01442
G1 X193.145 Y163.114 E.01444
G1 X192.696 Y163.015 E.01442
G1 X192.278 Y162.823 E.01443
G1 X191.925 Y162.555 E.0139
G1 X191.744 Y162.364 E.00824
G1 X191.494 Y161.996 E.01394
G1 X191.324 Y161.569 E.01444
G1 X191.249 Y161.115 E.01441
G1 X191.275 Y160.656 E.01442
G1 X191.393 Y160.229 E.01388
G1 X191.503 Y159.99 E.00826
G1 X191.744 Y159.636 E.01343
G1 X191.925 Y159.445 E.00824
G1 X192.278 Y159.177 E.0139
G1 X192.696 Y158.985 E.01443
G1 X193.145 Y158.886 E.01441
G1 X193.526 Y158.886 E.01195
M204 S1000
G1 X193.186 Y159.263 F10800
M204 S800
;TYPE:External perimeter
G1 F1200
G1 X193.564 Y159.263 E.01187
G1 X193.934 Y159.344 E.01186
G1 X194.277 Y159.502 E.01185
G1 X194.573 Y159.727 E.01166
G1 X194.712 Y159.873 E.00631
G1 X194.921 Y160.181 E.01167
G1 X195.061 Y160.533 E.01187
G1 X195.122 Y160.906 E.01184
G1 X195.101 Y161.283 E.01185
G1 X195.002 Y161.641 E.01164
G1 X194.917 Y161.824 E.00633
G1 X194.712 Y162.127 E.01148
G1 X194.573 Y162.273 E.00631
G1 X194.277 Y162.498 E.01166
G1 X193.934 Y162.656 E.01185
G1 X193.564 Y162.737 E.01186
G1 X193.186 Y162.737 E.01187
G1 X192.816 Y162.656 E.01186
G1 X192.473 Y162.498 E.01185
G1 X192.177 Y162.273 E.01166
G1 X192.038 Y162.127 E.00631
G1 X191.829 Y161.819 E.01167
G1 X191.689 Y161.467 E.01187
G1 X191.628 Y161.094 E.01184
G1 X191.649 Y160.717 E.01185
G1 X191.748 Y160.359 E.01164
G1 X191.833 Y160.176 E.00633
G1 X192.038 Y159.873 E.01148
G1 X192.177 Y159.727 E.00631
G1 X192.473 Y159.502 E.01166
G1 X192.816 Y159.344 E.01185
G1 X193.127 Y159.276 E.00997
M204 S1000
G1 X193.339 Y158.917 F10800
;WIPE_START
G1 F8640
G1 X193.564 Y159.263 E-.10099
G1 X193.934 Y159.344 E-.0873
G1 X194.277 Y159.502 E-.08727
G1 X194.573 Y159.727 E-.08585
G1 X194.712 Y159.873 E-.0465
G1 X194.921 Y160.181 E-.08593
G1 X195.061 Y160.533 E-.08744
G1 X195.122 Y160.906 E-.08718
G1 X195.101 Y161.283 E-.08726
G1 X195.096 Y161.301 E-.00427
;WIPE_END
G1 E-.04 F2100
G1 Z.6 F720
G1 X58.731 Y161.243 F10800
G1 Z.2 F720
G1 E.8 F2100
M204 S800
;TYPE:Perimeter
G1 F1200
G1 X58.725 Y161.344 E.00318
G1 X58.607 Y161.771 E.01388
G1 X58.497 Y162.01 E.00825
G1 X58.256 Y162.364 E.01343
G1 X58.075 Y162.555 E.00824
G1 X57.722 Y162.823 E.0139
G1 X57.304 Y163.015 E.01443
G1 X56.855 Y163.114 E.01442
G1 X56.395 Y163.114 E.01444
G1 X55.946 Y163.015 E.01442
G1 X55.528 Y162.823 E.01443
G1 X55.175 Y162.555 E.0139
G1 X54.994 Y162.364 E.00824
G1 X54.744 Y161.996 E.01394
G1 X54.574 Y161.569 E.01444
G1 X54.499 Y161.115 E.01441
G1 X54.525 Y160.656 E.01442
G1 X54.643 Y160.229 E.01388
G1 X54.753 Y159.99 E.00825
G1 X54.994 Y159.636 E.01343
G1 X55.175 Y159.445 E.00824
G1 X55.528 Y159.177 E.0139
G1 X55.946 Y158.985 E.01443
G1 X56.395 Y158.886 E.01442
G1 X56.855 Y158.886 E.01444
G1 X57.304 Y158.985 E.01442
G1 X57.722 Y159.177 E.01443
G1 X58.075 Y159.445 E.0139
G1 X58.256 Y159.636 E.00824
G1 X58.506 Y160.004 E.01394
G1 X58.676 Y160.431 E.01444
G1 X58.751 Y160.885 E.01441
G1 X58.734 Y161.183 E.00936
M204 S1000
G1 X58.372 Y160.906 F10800
M204 S800
;TYPE:External perimeter
G1 F1200
G1 X58.351 Y161.283 E.01185
G1 X58.252 Y161.641 E.01164
G1 X58.167 Y161.824 E.00632
G1 X57.962 Y162.127 E.01149
G1 X57.823 Y162.273 E.00631
G1 X57.527 Y162.498 E.01166
G1 X57.184 Y162.656 E.01185
G1 X56.814 Y162.737 E.01186
G1 X56.436 Y162.737 E.01187
G1 X56.066 Y162.656 E.01186
G1 X55.723 Y162.498 E.01185
G1 X55.427 Y162.273 E.01166
G1 X55.288 Y162.127 E.00631
G1 X55.079 Y161.819 E.01167
G1 X54.939 Y161.467 E.01187
G1 X54.878 Y161.094 E.01184
G1 X54.899 Y160.717 E.01185
G1 X54.998 Y160.359 E.01164
G1 X55.083 Y160.176 E.00632
G1 X55.288 Y159.873 E.01149
G1 X55.427 Y159.727 E.00631
G1 X55.723 Y159.502 E.01166
G1 X56.066 Y159.344 E.01185
G1 X56.436 Y159.263 E.01186
G1 X56.814 Y159.263 E.01187
G1 X57.184 Y159.344 E.01186
G1 X57.527 Y159.502 E.01185
G1 X57.823 Y159.727 E.01166
G1 X57.962 Y159.873 E.00631
G1 X58.171 Y160.181 E.01167
G1 X58.311 Y160.533 E.01187
G1 X58.362 Y160.846 E.00996
M204 S1000
G1 X58.709 Y161.077 F10800
;WIPE_START
G1 F8640
G1 X58.351 Y161.283 E-.10083
G1 X58.252 Y161.641 E-.08571
G1 X58.167 Y161.824 E-.04657
G1 X57.962 Y162.127 E-.08461
G1 X57.823 Y162.273 E-.04649
G1 X57.527 Y162.498 E-.08586
G1 X57.184 Y162.656 E-.08728
G1 X56.814 Y162.737 E-.08731
G1 X56.436 Y162.737 E-.08741
G1 X56.233 Y162.693 E-.04794
;WIPE_END
G1 E-.04 F2100
G1 Z.6 F720
G1 X56.664 Y72.114 F10800
G1 Z.2 F720
G1 E.8 F2100
M204 S800
;TYPE:Perimeter
G1 F1200
G1 X56.196 Y72.015 E.01501
G1 X55.778 Y71.823 E.01443
G1 X55.425 Y71.555 E.0139
G1 X55.244 Y71.364 E.00824
G1 X54.994 Y70.996 E.01394
G1 X54.824 Y70.569 E.01444
G1 X54.749 Y70.115 E.01441
G1 X54.775 Y69.656 E.01442
G1 X54.893 Y69.229 E.01388
G1 X55.003 Y68.99 E.00825
G1 X55.244 Y68.636 E.01343
G1 X55.425 Y68.445 E.00824
G1 X55.778 Y68.177 E.0139
G1 X56.196 Y67.985 E.01443
G1 X56.645 Y67.886 E.01442
G1 X57.105 Y67.886 E.01444
G1 X57.554 Y67.985 E.01442
G1 X57.972 Y68.177 E.01443
G1 X58.325 Y68.445 E.01391
G1 X58.506 Y68.636 E.00824
G1 X58.756 Y69.004 E.01393
G1 X58.926 Y69.431 E.01444
G1 X59.001 Y69.885 E.01441
G1 X58.975 Y70.344 E.01441
G1 X58.86 Y70.763 E.01363
G1 X58.747 Y71.009 E.00848
G1 X58.506 Y71.364 E.01347
G1 X58.325 Y71.555 E.00823
G1 X57.972 Y71.823 E.0139
G1 X57.554 Y72.015 E.01443
G1 X57.105 Y72.114 E.01442
G1 X56.724 Y72.114 E.01195
M204 S1000
G1 X57.064 Y71.737 F10800
M204 S800
;TYPE:External perimeter
G1 F1200
G1 X56.686 Y71.737 E.01187
G1 X56.316 Y71.656 E.01186
G1 X55.973 Y71.498 E.01185
G1 X55.677 Y71.273 E.01166
G1 X55.538 Y71.127 E.00631
G1 X55.329 Y70.819 E.01167
G1 X55.189 Y70.467 E.01187
G1 X55.128 Y70.094 E.01184
G1 X55.149 Y69.717 E.01185
G1 X55.248 Y69.359 E.01164
G1 X55.333 Y69.176 E.00632
G1 X55.538 Y68.873 E.01149
G1 X55.677 Y68.727 E.00631
G1 X55.973 Y68.502 E.01166
G1 X56.316 Y68.344 E.01185
G1 X56.686 Y68.263 E.01186
G1 X57.064 Y68.263 E.01187
G1 X57.434 Y68.344 E.01186
G1 X57.777 Y68.502 E.01185
G1 X58.073 Y68.727 E.01166
G1 X58.212 Y68.873 E.00631
G1 X58.421 Y69.181 E.01167
G1 X58.561 Y69.533 E.01187
G1 X58.622 Y69.906 E.01184
G1 X58.601 Y70.283 E.01185
G1 X58.504 Y70.634 E.01142
G1 X58.417 Y70.823 E.00654
G1 X58.212 Y71.127 E.0115
G1 X58.073 Y71.273 E.00631
G1 X57.777 Y71.498 E.01166
G1 X57.434 Y71.656 E.01185
G1 X57.123 Y71.724 E.00997
M204 S1000
G1 X56.911 Y72.083 F10800
;WIPE_START
G1 F8640
G1 X56.686 Y71.737 E-.10098
G1 X56.316 Y71.656 E-.08731
G1 X55.973 Y71.498 E-.08728
G1 X55.677 Y71.273 E-.08586
G1 X55.538 Y71.127 E-.04649
G1 X55.329 Y70.819 E-.08594
G1 X55.189 Y70.467 E-.08744
G1 X55.128 Y70.094 E-.08718
G1 X55.149 Y69.717 E-.08726
G1 X55.154 Y69.699 E-.00427
;WIPE_END
G1 E-.04 F2100
G1 Z.6 F720
G1 X187.838 Y74.236 F10800
G1 Z.2 F720
G1 E.8 F2100
M204 S800
;TYPE:Perimeter
G1 F1200
G1 X187.838 Y156.787 E2.58834
G1 X197.588 Y156.787 E.3057
G1 X197.588 Y165.213 E.26419
G1 X52.412 Y165.213 E4.55189
G1 X52.412 Y156.787 E.26419
G1 X62.412 Y156.787 E.31354
G1 X62.412 Y74.213 E2.58905
G1 X52.662 Y74.213 E.3057
G1 X52.662 Y65.787 E.26419
G1 X197.588 Y65.787 E4.54405
G1 X197.588 Y74.213 E.26419
M73 P0 R372
G1 X187.875 Y74.213 E.30454
M204 S1000
G1 X188.215 Y74.59 F10800
M204 S800
;TYPE:External perimeter
G1 F1200
G1 X188.215 Y156.41 E2.56541
G1 X197.965 Y156.41 E.3057
G1 X197.965 Y165.59 E.28783
G1 X52.035 Y165.59 E4.57553
G1 X52.035 Y156.41 E.28783
M73 Q0 S375
G1 X62.035 Y156.41 E.31354
G1 X62.035 Y74.59 E2.56541
G1 X52.285 Y74.59 E.3057
G1 X52.285 Y65.41 E.28783
G1 X197.965 Y65.41 E4.56769
G1 X197.965 Y74.59 E.28783
G1 X188.275 Y74.59 E.30382
M204 S1000
G1 X187.828 Y74.69 F10800
;WIPE_START
G1 F8640
G1 X188.273 Y77.881 E-.76
;WIPE_END
G1 E-.04 F2100
G1 Z.6 F720
G1 X196.711 Y65.9 F10800
G1 Z.2 F720
G1 E.8 F2100
M204 S800
;TYPE:Solid infill
;WIDTH:0.420803
G1 F1200
G1 X197.305 Y66.494 E.02641
G1 X197.305 Y67.029 E.01679
G1 X196.346 Y66.07 E.04261
G1 X195.812 Y66.07 E.01679
G1 X197.305 Y67.563 E.06636
G1 X197.305 Y68.098 E.01679
G1 X195.277 Y66.07 E.09011
G1 X194.743 Y66.07 E.01679
G1 X197.305 Y68.632 E.11386
G1 X197.305 Y69.167 E.01679
G1 X194.208 Y66.07 E.1376
G1 X193.674 Y66.07 E.01679
G1 X197.305 Y69.701 E.16135
G1 X197.305 Y70.235 E.01679
G1 X193.14 Y66.07 E.1851
G1 X192.605 Y66.07 E.01679
G1 X194.34 Y67.805 E.0771
G1 X194.619 Y67.933 E.00963
G1 X195.014 Y68.234 E.01562
G1 X195.227 Y68.458 E.0097
G1 X195.507 Y68.87 E.01567
G1 X195.574 Y69.039 E.00569
G1 X197.305 Y70.77 E.07692
G1 X197.305 Y71.304 E.01679
G1 X195.768 Y69.767 E.06831
G1 X195.785 Y69.87 E.00327
G1 X195.761 Y70.295 E.01337
G1 X197.305 Y71.839 E.0686
G1 X197.305 Y72.373 E.01679
G1 X195.662 Y70.73 E.07302
G1 X195.624 Y70.869 E.00452
G1 X195.511 Y71.113 E.00846
G1 X197.305 Y72.907 E.07974
G1 X197.305 Y73.442 E.01679
G1 X195.299 Y71.436 E.08913
G1 X195.227 Y71.542 E.00404
G1 X195.054 Y71.725 E.00791
G1 X197.259 Y73.93 E.098
G1 X196.725 Y73.93 E.01679
G1 X194.757 Y71.962 E.08745
G1 X194.619 Y72.067 E.00544
G1 X194.419 Y72.159 E.00691
G1 X196.19 Y73.93 E.07871
G1 X195.656 Y73.93 E.01679
G1 X194.035 Y72.309 E.07203
G1 X193.588 Y72.397 E.0143
G1 X195.121 Y73.93 E.06813
G1 X194.587 Y73.93 E.01679
G1 X192.814 Y72.157 E.07878
M204 S1000
;WIPE_START
G1 F8640
G1 X194.587 Y73.93 E-.5789
G1 X195.121 Y73.93 E-.1234
G1 X194.945 Y73.753 E-.05771
;WIPE_END
G1 E-.04 F2100
G1 Z.6 F720
G1 X193.818 Y67.817 F10800
G1 Z.2 F720
G1 E.8 F2100
M204 S800
G1 F1200
G1 X192.071 Y66.07 E.07762
G1 X191.536 Y66.07 E.01679
G1 X193.078 Y67.611 E.06848
G1 X192.64 Y67.707 E.01409
G1 X191.002 Y66.07 E.07276
G1 X190.468 Y66.07 E.01679
G1 X192.268 Y67.87 E.08
G1 X192.131 Y67.933 E.00473
G1 X191.941 Y68.078 E.00751
G1 X189.933 Y66.07 E.08922
G1 X189.399 Y66.07 E.01679
G1 X191.651 Y68.322 E.1001
G1 X191.523 Y68.458 E.00586
G1 X191.413 Y68.619 E.00612
G1 X188.864 Y66.07 E.11327
G1 X188.33 Y66.07 E.01679
G1 X191.21 Y68.95 E.12799
G1 X191.126 Y69.131 E.00628
G1 X191.068 Y69.342 E.00688
G1 X187.796 Y66.07 E.14542
G1 X187.261 Y66.07 E.01679
G1 X190.984 Y69.793 E.16542
G1 X190.965 Y70.13 E.01063
G1 X191 Y70.343 E.00679
G1 X186.727 Y66.07 E.1899
G1 X186.192 Y66.07 E.01679
G1 X194.053 Y73.93 E.34928
G1 X193.518 Y73.93 E.01679
G1 X185.658 Y66.07 E.34928
G1 X185.124 Y66.07 E.01679
G1 X192.984 Y73.93 E.34928
G1 X192.449 Y73.93 E.01679
G1 X184.589 Y66.07 E.34928
G1 X184.055 Y66.07 E.01679
G1 X191.915 Y73.93 E.34928
G1 X191.381 Y73.93 E.01679
G1 X183.52 Y66.07 E.34928
G1 X182.986 Y66.07 E.01679
G1 X190.846 Y73.93 E.34928
G1 X190.312 Y73.93 E.01679
G1 X182.452 Y66.07 E.34928
G1 X181.917 Y66.07 E.01679
G1 X189.777 Y73.93 E.34928
G1 X189.243 Y73.93 E.01679
G1 X181.383 Y66.07 E.34928
G1 X180.848 Y66.07 E.01679
G1 X188.709 Y73.93 E.34928
G1 X188.174 Y73.93 E.01679
G1 X180.314 Y66.07 E.34928
G1 X179.779 Y66.07 E.01679
G1 X187.64 Y73.93 E.34928
G1 X187.555 Y73.93 E.00266
G1 X187.555 Y74.38 E.01413
G1 X179.245 Y66.07 E.36927
G1 X178.711 Y66.07 E.01679
G1 X187.555 Y74.914 E.39301
G1 X187.555 Y75.449 E.01679
