; generated by PrusaSlicer 2.4.0+win64 on 2022-02-07 at 16:00:41 UTC

; 

; external perimeters extrusion width = 0.45mm
; perimeters extrusion width = 0.45mm
; infill extrusion width = 0.45mm
; solid infill extrusion width = 0.45mm
; top infill extrusion width = 0.40mm
; first layer extrusion width = 0.42mm

M73 P0 R117
M73 Q0 S118
M201 X1000 Y1000 Z200 E5000 ; sets maximum accelerations, mm/sec^2
M203 X200 Y200 Z12 E120 ; sets maximum feedrates, mm/sec
M204 P1250 R1250 T1250 ; sets acceleration (P, T) and retract acceleration (R), mm/sec^2
M205 X8.00 Y8.00 Z0.40 E4.50 ; sets the jerk limits, mm/sec
M205 S0 T0 ; sets the minimum extruding and travel feed rate, mm/sec
M107
;TYPE:Custom
M862.3 P "MK3S" ; printer model check
M862.1 P0.4 ; nozzle diameter check
M115 U3.10.0 ; tell printer latest fw version
G90 ; use absolute coordinates
M83 ; extruder relative mode
M104 S215 ; set extruder temp
M140 S60 ; set bed temp
M190 S60 ; wait for bed temp
M109 S215 ; wait for extruder temp
G28 W ; home all without mesh bed level
G80 ; mesh bed leveling
G1 Z0.2 F720
G1 Y-3 F1000 ; go outside print area
G92 E0
G1 X60 E9 F1000 ; intro line
G1 X100 E12.5 F1000 ; intro line
G92 E0
M221 S95

; Don't change E values below. Excessive value can damage the printer.
M907 E430 ; set extruder motor current
G21 ; set units to millimeters
G90 ; use absolute coordinates
M83 ; use relative distances for extrusion
M900 K0.05 ; Filament gcode LA 1.5
M900 K30 ; Filament gcode LA 1.0
M107
;LAYER_CHANGE
;Z:0.2
;HEIGHT:0.2
;BEFORE_LAYER_CHANGE
G92 E0.0
;0.2


G1 E-.8 F2100
G1 Z.4 F720
;AFTER_LAYER_CHANGE
;0.2
G1 X59.55 Y52.977 F10800
G1 Z.2 F720
G1 E.8 F2100
M204 S800
;TYPE:Skirt/Brim
;WIDTH:0.42
G1 F1200
G1 X60.688 Y52.225 E.04278
G1 X61.375 Y52.123 E.02179
G1 X188.375 Y52.123 E3.982
G1 X189.682 Y52.515 E.04278
G1 X190.736 Y54.221 E.06288
G1 X196.252 Y101 E1.47689
G1 X196.236 Y109.279 E.25959
G1 X190.736 Y155.779 E1.46814
G1 X190.193 Y157.031 E.04278
G1 X188.375 Y157.877 E.06288
G1 X61.375 Y157.877 E3.982
G1 X60.068 Y157.485 E.04278
G1 X59.192 Y156.44 E.04278
G1 X59.013 Y155.765 E.02188
G1 X53.763 Y109.015 E1.47503
G1 X53.748 Y100.75 E.25915
M73 Q0 S117
G1 X59.013 Y54.232 E1.46786
G1 X59.526 Y53.033 E.0409
M204 S1000
; printing object Couvercle Cde Prises Chacon 54650RX.stl id:0 copy 0
;WIPE_START
G1 F8640
G1 X60.688 Y52.225 E-.32671
G1 X61.375 Y52.123 E-.16047
G1 X62.557 Y52.123 E-.27282
;WIPE_END
G1 E-.04 F2100
G1 Z.6 F720
G1 X188.949 Y104.103 F10800
G1 Z.2 F720
G1 E.8 F2100
M204 S800
;TYPE:Perimeter
G1 F1200
G1 X189.068 Y103.869 E.00822
G1 X189.494 Y103.443 E.01889
G1 X190.03 Y103.17 E.01886
G1 X190.625 Y103.075 E.01888
G1 X191.22 Y103.17 E.01888
G1 X191.756 Y103.443 E.01886
G1 X192.182 Y103.869 E.01889
G1 X192.455 Y104.405 E.01886
G1 X192.55 Y105 E.01888
G1 X192.455 Y105.595 E.01888
G1 X192.182 Y106.131 E.01886
G1 X191.756 Y106.557 E.01889
G1 X191.219 Y106.83 E.0189
G1 X190.625 Y106.924 E.01884
G1 X190.031 Y106.83 E.01884
G1 X189.494 Y106.557 E.0189
G1 X189.068 Y106.131 E.01889
G1 X188.795 Y105.594 E.0189
G1 X188.701 Y105 E.01884
G1 X188.795 Y104.406 E.01884
G1 X188.922 Y104.156 E.00879
M204 S1000
G1 X189.158 Y104.524 F10800
M204 S800
;TYPE:External perimeter
G1 F1200
G1 X189.377 Y104.093 E.01515
G1 X189.718 Y103.752 E.01513
G1 X190.149 Y103.533 E.01513
G1 X190.625 Y103.457 E.01513
G1 X191.101 Y103.533 E.01513
G1 X191.532 Y103.752 E.01513
G1 X191.873 Y104.093 E.01513
G1 X192.092 Y104.524 E.01513
G1 X192.168 Y105 E.01513
G1 X192.092 Y105.476 E.01513
G1 X191.873 Y105.907 E.01513
G1 X191.532 Y106.248 E.01513
G1 X191.101 Y106.467 E.01515
G1 X190.625 Y106.542 E.01511
G1 X190.149 Y106.467 E.01511
G1 X189.718 Y106.248 E.01515
G1 X189.377 Y105.907 E.01513
G1 X189.158 Y105.476 E.01515
G1 X189.083 Y105 E.01511
G1 X189.149 Y104.583 E.01323
M204 S1000
G1 X188.89 Y104.227 F10800
;WIPE_START
G1 F8640
G1 X189.377 Y104.093 E-.12484
G1 X189.718 Y103.752 E-.11142
G1 X190.149 Y103.533 E-.11145
G1 X190.625 Y103.457 E-.11144
G1 X191.101 Y103.533 E-.11144
G1 X191.532 Y103.752 E-.11145
G1 X191.771 Y103.991 E-.07797
;WIPE_END
G1 E-.04 F2100
G1 Z.6 F720
G1 X61.121 Y105.336 F10800
G1 Z.2 F720
G1 E.8 F2100
M204 S800
;TYPE:Perimeter
G1 F1200
G1 X61.086 Y105.556 E.00698
G1 X60.831 Y106.057 E.01764
G1 X60.432 Y106.456 E.01767
G1 X59.931 Y106.711 E.01764
G1 X59.375 Y106.799 E.01765
G1 X58.819 Y106.711 E.01765
G1 X58.318 Y106.456 E.01764
G1 X57.919 Y106.057 E.01767
G1 X57.665 Y105.557 E.0176
G1 X57.575 Y105 E.01769
G1 X57.665 Y104.443 E.01769
G1 X57.919 Y103.943 E.0176
G1 X58.318 Y103.544 E.01767
G1 X58.818 Y103.29 E.0176
G1 X59.375 Y103.2 E.01769
G1 X59.932 Y103.29 E.01769
G1 X60.432 Y103.544 E.0176
G1 X60.831 Y103.943 E.01767
G1 X61.086 Y104.444 E.01764
G1 X61.174 Y105 E.01765
G1 X61.13 Y105.277 E.00879
M204 S1000
G1 X60.792 Y105 F10800
M204 S800
;TYPE:External perimeter
G1 F1200
G1 X60.723 Y105.438 E.01391
G1 X60.522 Y105.833 E.01389
G1 X60.208 Y106.147 E.01392
G1 X59.813 Y106.348 E.01389
G1 X59.375 Y106.417 E.01391
G1 X58.937 Y106.348 E.01391
G1 X58.542 Y106.147 E.01389
G1 X58.228 Y105.833 E.01392
G1 X58.027 Y105.439 E.01387
G1 X57.957 Y105 E.01393
G1 X58.027 Y104.561 E.01393
G1 X58.228 Y104.167 E.01387
G1 X58.542 Y103.853 E.01392
G1 X58.936 Y103.652 E.01387
G1 X59.375 Y103.582 E.01393
G1 X59.814 Y103.652 E.01393
G1 X60.208 Y103.853 E.01387
G1 X60.522 Y104.167 E.01392
G1 X60.723 Y104.562 E.01389
G1 X60.783 Y104.941 E.01203
M204 S1000
G1 X61.139 Y105.2 F10800
;WIPE_START
G1 F8640
G1 X60.723 Y105.438 E-.11568
G1 X60.522 Y105.833 E-.10229
G1 X60.208 Y106.147 E-.10252
G1 X59.813 Y106.348 E-.10229
G1 X59.375 Y106.417 E-.10242
G1 X58.937 Y106.348 E-.10242
G1 X58.542 Y106.147 E-.10229
G1 X58.45 Y106.055 E-.03009
;WIPE_END
G1 E-.04 F2100
G1 Z.6 F720
G1 X188.365 Y101.787 F10800
G1 Z.2 F720
G1 E.8 F2100
M204 S800
;TYPE:Perimeter
G1 F1200
G1 X193.088 Y101.787 E.14808
G1 X193.088 Y108.213 E.20148
G1 X187.588 Y108.213 E.17245
G1 X187.588 Y154.713 E1.45797
G1 X62.162 Y154.713 E3.93264
G1 X62.162 Y107.963 E1.46581
G1 X56.912 Y107.963 E.16461
G1 X56.912 Y101.537 E.20148
G1 X62.162 Y101.537 E.16461
G1 X62.162 Y55.287 E1.45014
G1 X187.588 Y55.287 E3.93264
G1 X187.588 Y101.787 E1.45797
M73 P0 R116
G1 X188.305 Y101.787 E.02248
M204 S1000
G1 X187.965 Y101.41 F10800
M204 S800
;TYPE:External perimeter
G1 F1200
G1 X193.465 Y101.41 E.17245
G1 X193.465 Y108.59 E.22512
G1 X187.965 Y108.59 E.17245
G1 X187.965 Y155.09 E1.45797
G1 X61.785 Y155.09 E3.95629
G1 X61.785 Y108.34 E1.46581
M73 Q1 S117
G1 X56.535 Y108.34 E.16461
M73 P1 R116
G1 X56.535 Y101.16 E.22512
G1 X61.785 Y101.16 E.16461
G1 X61.785 Y54.91 E1.45014
G1 X187.965 Y54.91 E3.95629
G1 X187.965 Y101.35 E1.45609
M204 S1000
G1 X188.123 Y101.777 F10800
;WIPE_START
G1 F8640
G1 X191.256 Y101.386 E-.76
;WIPE_END
G1 E-.04 F2100
G1 Z.6 F720
G1 X192.975 Y102.283 F10800
G1 Z.2 F720
G1 E.8 F2100
M204 S800
;TYPE:Solid infill
;WIDTH:0.420842
G1 F1200
G1 X192.761 Y102.07 E.00949
G1 X192.227 Y102.07 E.0168
G1 X192.805 Y102.648 E.0257
M73 Q1 S116
G1 X192.805 Y103.183 E.0168
G1 X191.692 Y102.07 E.04945
G1 X191.158 Y102.07 E.0168
G1 X192.805 Y103.717 E.0732
G1 X192.805 Y103.972 E.00801
G1 X192.561 Y103.991 E.00768
G1 X192.414 Y103.701 E.01024
G1 X191.924 Y103.211 E.02176
G1 X191.6 Y103.047 E.01142
G1 X190.623 Y102.07 E.0434
G1 X190.089 Y102.07 E.0168
G1 X190.842 Y102.823 E.03349
G1 X190.625 Y102.788 E.00692
G1 X190.322 Y102.837 E.00965
G1 X189.555 Y102.07 E.0341
G1 X189.02 Y102.07 E.0168
G1 X189.88 Y102.93 E.03821
G1 X189.525 Y103.11 E.01249
G1 X188.486 Y102.07 E.04621
G1 X187.951 Y102.07 E.0168
G1 X189.329 Y103.448 E.06124
M204 S1000
;WIPE_START
G1 F8640
G1 X187.951 Y102.07 E-.44997
G1 X188.486 Y102.07 E-.12341
G1 X189.057 Y102.641 E-.18662
;WIPE_END
G1 E-.04 F2100
G1 Z.6 F720
G1 X192.389 Y105.973 F10800
G1 Z.2 F720
G1 E.8 F2100
M204 S800
G1 F1200
G1 X192.805 Y106.389 E.01849
G1 X192.805 Y106.924 E.0168
G1 X192.297 Y106.416 E.02257
G1 X192.03 Y106.683 E.01188
G1 X192.805 Y107.458 E.03445
G1 X192.805 Y107.93 E.01483
G1 X192.742 Y107.93 E.00197
G1 X191.71 Y106.898 E.04588
G1 X191.356 Y107.078 E.01249
G1 X192.208 Y107.93 E.03788
G1 X191.674 Y107.93 E.0168
G1 X190.909 Y107.165 E.03399
G1 X190.625 Y107.21 E.00903
G1 X190.38 Y107.172 E.00778
G1 X191.309 Y108.1 E.04125
M204 S1000
;WIPE_START
G1 F8640
G1 X190.38 Y107.172 E-.30313
G1 X190.625 Y107.21 E-.05717
G1 X190.909 Y107.165 E-.06633
G1 X191.674 Y107.93 E-.24974
G1 X192.036 Y107.93 E-.08363
;WIPE_END
G1 E-.04 F2100
G1 Z.6 F720
G1 X186.711 Y55.4 F10800
G1 Z.2 F720
G1 E.8 F2100
M204 S800
G1 F1200
G1 X187.305 Y55.995 E.02641
G1 X187.305 Y56.529 E.0168
G1 X186.346 Y55.57 E.04263
G1 X185.812 Y55.57 E.0168
G1 X187.305 Y57.063 E.06638
G1 X187.305 Y57.598 E.0168
G1 X185.277 Y55.57 E.09013
G1 X184.743 Y55.57 E.0168
G1 X187.305 Y58.132 E.11388
G1 X187.305 Y58.667 E.0168
G1 X184.208 Y55.57 E.13763
G1 X183.674 Y55.57 E.0168
G1 X187.305 Y59.201 E.16138
G1 X187.305 Y59.736 E.0168
G1 X183.139 Y55.57 E.18514
G1 X182.605 Y55.57 E.0168
G1 X187.305 Y60.27 E.20889
G1 X187.305 Y60.805 E.0168
G1 X182.07 Y55.57 E.23264
G1 X181.536 Y55.57 E.0168
G1 X187.305 Y61.339 E.25639
G1 X187.305 Y61.874 E.0168
G1 X181.001 Y55.57 E.28014
G1 X180.467 Y55.57 E.0168
G1 X187.305 Y62.408 E.3039
G1 X187.305 Y62.943 E.0168
G1 X179.932 Y55.57 E.32765
G1 X179.398 Y55.57 E.0168
G1 X187.305 Y63.477 E.3514
G1 X187.305 Y64.011 E.0168
G1 X178.864 Y55.57 E.37515
G1 X178.329 Y55.57 E.0168
G1 X187.305 Y64.546 E.3989
G1 X187.305 Y65.08 E.0168
G1 X177.795 Y55.57 E.42266
G1 X177.26 Y55.57 E.0168
G1 X187.305 Y65.615 E.44641
G1 X187.305 Y66.149 E.0168
G1 X176.726 Y55.57 E.47016
G1 X176.191 Y55.57 E.0168
G1 X187.305 Y66.684 E.49391
G1 X187.305 Y67.218 E.0168
G1 X175.657 Y55.57 E.51766
G1 X175.122 Y55.57 E.0168
G1 X187.305 Y67.753 E.54142
G1 X187.305 Y68.287 E.0168
G1 X174.588 Y55.57 E.56517
G1 X174.053 Y55.57 E.0168
G1 X187.305 Y68.822 E.58892
G1 X187.305 Y69.356 E.0168
G1 X173.519 Y55.57 E.61267
G1 X172.984 Y55.57 E.0168
G1 X187.305 Y69.891 E.63642
G1 X187.305 Y70.425 E.0168
G1 X172.45 Y55.57 E.66017
G1 X171.915 Y55.57 E.0168
G1 X187.305 Y70.96 E.68393
G1 X187.305 Y71.494 E.0168
G1 X171.381 Y55.57 E.70768
G1 X170.847 Y55.57 E.0168
G1 X187.305 Y72.028 E.73143
G1 X187.305 Y72.563 E.0168
G1 X170.312 Y55.57 E.75518
G1 X169.778 Y55.57 E.0168
G1 X187.305 Y73.097 E.77893
G1 X187.305 Y73.632 E.0168
G1 X169.243 Y55.57 E.80269
G1 X168.709 Y55.57 E.0168
G1 X187.305 Y74.166 E.82644
G1 X187.305 Y74.701 E.0168
M73 P1 R115
G1 X168.174 Y55.57 E.85019
G1 X167.64 Y55.57 E.0168
G1 X187.305 Y75.235 E.87394
G1 X187.305 Y75.77 E.0168
G1 X167.105 Y55.57 E.89769
G1 X166.571 Y55.57 E.0168
G1 X187.305 Y76.304 E.92145
G1 X187.305 Y76.839 E.0168
G1 X166.036 Y55.57 E.9452
G1 X165.502 Y55.57 E.0168
G1 X187.305 Y77.373 E.96895
G1 X187.305 Y77.908 E.0168
G1 X164.967 Y55.57 E.9927
G1 X164.433 Y55.57 E.0168
G1 X187.305 Y78.442 E1.01645
G1 X187.305 Y78.976 E.0168
G1 X163.899 Y55.57 E1.04021
G1 X163.364 Y55.57 E.0168
G1 X187.305 Y79.511 E1.06396
G1 X187.305 Y80.045 E.0168
G1 X162.83 Y55.57 E1.08771
G1 X162.295 Y55.57 E.0168
G1 X187.305 Y80.58 E1.11146
G1 X187.305 Y81.114 E.0168
G1 X161.761 Y55.57 E1.13521
G1 X161.226 Y55.57 E.0168
G1 X187.305 Y81.649 E1.15896
G1 X187.305 Y82.183 E.0168
G1 X160.692 Y55.57 E1.18272
G1 X160.157 Y55.57 E.0168
G1 X187.305 Y82.718 E1.20647
G1 X187.305 Y83.252 E.0168
G1 X159.623 Y55.57 E1.23022
G1 X159.088 Y55.57 E.0168
M73 Q2 S116
G1 X187.305 Y83.787 E1.25397
G1 X187.305 Y84.321 E.0168
M73 P2 R115
G1 X158.554 Y55.57 E1.27772
G1 X158.019 Y55.57 E.0168
M73 Q2 S115
G1 X187.305 Y84.856 E1.30148
G1 X187.305 Y85.39 E.0168
G1 X157.485 Y55.57 E1.32523
G1 X156.951 Y55.57 E.0168
G1 X187.305 Y85.924 E1.34898
G1 X187.305 Y86.459 E.0168
G1 X156.416 Y55.57 E1.37273
G1 X155.882 Y55.57 E.0168
G1 X187.305 Y86.993 E1.39648
G1 X187.305 Y87.528 E.0168
G1 X155.347 Y55.57 E1.42024
G1 X154.813 Y55.57 E.0168
G1 X187.305 Y88.062 E1.44399
G1 X187.305 Y88.597 E.0168
G1 X154.278 Y55.57 E1.46774
G1 X153.744 Y55.57 E.0168
G1 X187.305 Y89.131 E1.49149
G1 X187.305 Y89.666 E.0168
G1 X153.209 Y55.57 E1.51524
G1 X152.675 Y55.57 E.0168
G1 X187.305 Y90.2 E1.539
G1 X187.305 Y90.735 E.0168
G1 X152.14 Y55.57 E1.56275
G1 X151.606 Y55.57 E.0168
M73 P2 R114
G1 X187.305 Y91.269 E1.5865
G1 X187.305 Y91.804 E.0168
G1 X151.071 Y55.57 E1.61025
G1 X150.537 Y55.57 E.0168
G1 X187.305 Y92.338 E1.634
G1 X187.305 Y92.872 E.0168
G1 X150.003 Y55.57 E1.65775
G1 X149.468 Y55.57 E.0168
G1 X187.305 Y93.407 E1.68151
G1 X187.305 Y93.941 E.0168
G1 X148.934 Y55.57 E1.70526
G1 X148.399 Y55.57 E.0168
G1 X187.305 Y94.476 E1.72901
G1 X187.305 Y95.01 E.0168
G1 X147.865 Y55.57 E1.75276
G1 X147.33 Y55.57 E.0168
G1 X187.305 Y95.545 E1.77651
G1 X187.305 Y96.079 E.0168
G1 X146.796 Y55.57 E1.80027
G1 X146.261 Y55.57 E.0168
G1 X187.305 Y96.614 E1.82402
G1 X187.305 Y97.148 E.0168
G1 X145.727 Y55.57 E1.84777
G1 X145.192 Y55.57 E.0168
M73 Q2 S114
G1 X187.305 Y97.683 E1.87152
G1 X187.305 Y98.217 E.0168
G1 X144.658 Y55.57 E1.89527
G1 X144.123 Y55.57 E.0168
M73 P3 R114
M73 Q3 S114
G1 X187.305 Y98.752 E1.91903
G1 X187.305 Y99.286 E.0168
G1 X143.589 Y55.57 E1.94278
G1 X143.055 Y55.57 E.0168
G1 X187.305 Y99.82 E1.96653
G1 X187.305 Y100.355 E.0168
G1 X142.52 Y55.57 E1.99028
G1 X141.986 Y55.57 E.0168
G1 X187.305 Y100.889 E2.01403
G1 X187.305 Y101.424 E.0168
G1 X141.451 Y55.57 E2.03779
G1 X140.917 Y55.57 E.0168
G1 X188.942 Y103.595 E2.13428
G1 X188.836 Y103.701 E.0047
M73 P3 R113
G1 X188.727 Y103.915 E.00755
G1 X140.382 Y55.57 E2.14849
G1 X139.848 Y55.57 E.0168
G1 X188.547 Y104.269 E2.16425
G1 X188.523 Y104.318 E.00172
G1 X188.46 Y104.716 E.01267
G1 X139.313 Y55.57 E2.1841
G1 X138.779 Y55.57 E.0168
G1 X188.658 Y105.449 E2.21665
M204 S1000
;WIPE_START
G1 F8640
G1 X186.33 Y103.121 E-.76
;WIPE_END
G1 E-.04 F2100
G1 Z.6 F720
G1 X190.774 Y108.1 F10800
G1 Z.2 F720
G1 E.8 F2100
M204 S800
G1 F1200
G1 X138.244 Y55.57 E2.33447
G1 X137.71 Y55.57 E.0168
G1 X190.07 Y107.93 E2.32693
G1 X189.536 Y107.93 E.0168
G1 X137.175 Y55.57 E2.32693
G1 X136.641 Y55.57 E.0168
G1 X189.001 Y107.93 E2.32693
G1 X188.467 Y107.93 E.0168
M73 Q3 S113
G1 X136.107 Y55.57 E2.32693
G1 X135.572 Y55.57 E.0168
G1 X187.932 Y107.93 E2.32693
G1 X187.398 Y107.93 E.0168
G1 X135.038 Y55.57 E2.32693
G1 X134.503 Y55.57 E.0168
G1 X187.305 Y108.372 E2.34656
G1 X187.305 Y108.906 E.0168
G1 X133.969 Y55.57 E2.37031
G1 X133.434 Y55.57 E.0168
M73 P4 R113
M73 Q4 S113
G1 X187.305 Y109.441 E2.39406
G1 X187.305 Y109.975 E.0168
G1 X132.9 Y55.57 E2.41782
G1 X132.365 Y55.57 E.0168
G1 X187.305 Y110.51 E2.44157
G1 X187.305 Y111.044 E.0168
M73 P4 R112
G1 X131.831 Y55.57 E2.46532
G1 X131.296 Y55.57 E.0168
G1 X187.305 Y111.579 E2.48907
G1 X187.305 Y112.113 E.0168
G1 X130.762 Y55.57 E2.51282
G1 X130.227 Y55.57 E.0168
G1 X187.305 Y112.648 E2.53657
G1 X187.305 Y113.182 E.0168
G1 X129.693 Y55.57 E2.56033
G1 X129.158 Y55.57 E.0168
G1 X187.305 Y113.717 E2.58408
G1 X187.305 Y114.251 E.0168
G1 X128.624 Y55.57 E2.60783
G1 X128.09 Y55.57 E.0168
G1 X187.305 Y114.785 E2.63158
G1 X187.305 Y115.32 E.0168
M73 Q4 S112
G1 X127.555 Y55.57 E2.65533
G1 X127.021 Y55.57 E.0168
G1 X187.305 Y115.854 E2.67909
G1 X187.305 Y116.389 E.0168
G1 X126.486 Y55.57 E2.70284
G1 X125.952 Y55.57 E.0168
G1 X187.305 Y116.923 E2.72659
G1 X187.305 Y117.458 E.0168
G1 X125.417 Y55.57 E2.75034
G1 X124.883 Y55.57 E.0168
G1 X187.305 Y117.992 E2.77409
G1 X187.305 Y118.527 E.0168
M73 P5 R111
M73 Q5 S112
G1 X124.348 Y55.57 E2.79785
G1 X123.814 Y55.57 E.0168
G1 X187.305 Y119.061 E2.8216
G1 X187.305 Y119.596 E.0168
G1 X123.279 Y55.57 E2.84535
G1 X122.745 Y55.57 E.0168
G1 X187.305 Y120.13 E2.8691
G1 X187.305 Y120.665 E.0168
G1 X122.21 Y55.57 E2.89285
G1 X121.676 Y55.57 E.0168
G1 X187.305 Y121.199 E2.91661
G1 X187.305 Y121.733 E.0168
G1 X121.142 Y55.57 E2.94036
G1 X120.607 Y55.57 E.0168
M73 Q5 S111
G1 X187.305 Y122.268 E2.96411
G1 X187.305 Y122.802 E.0168
G1 X120.073 Y55.57 E2.98786
G1 X119.538 Y55.57 E.0168
G1 X187.305 Y123.337 E3.01161
G1 X187.305 Y123.871 E.0168
G1 X119.004 Y55.57 E3.03536
G1 X118.469 Y55.57 E.0168
G1 X187.305 Y124.406 E3.05912
G1 X187.305 Y124.94 E.0168
G1 X117.935 Y55.57 E3.08287
G1 X117.4 Y55.57 E.0168
M73 P5 R110
